build/documents/FileXLSOutline.svg

<svg xmlns="http://www.w3.org/2000/svg" fill="none" viewBox="0 0 24 24" focusable="false"><path d="M0 0H24V24H0z"/><path fill="#74767B" fill-rule="evenodd" d="M5 11L5 6C5 4.34315 6.34315 3 8 3L13.042 3C13.8752 3 14.671 3.34655 15.2385 3.95662L18.1965 7.13629C18.7129 7.69141 19 8.42148 19 9.17966L19 11C20.6569 11 22 12.3431 22 14L22 18C22 19.6569 20.6569 21 19 21L5 21C3.34315 21 2 19.6569 2 18L2 14C2 12.3431 3.34315 11 5 11ZM13.042 4.3L8 4.3C7.06112 4.3 6.3 5.06112 6.3 6L6.3 11L17.7 11L17.7 9.17966C17.7 9.11913 17.6968 9.05892 17.6904 8.99925L15.2999 8.99926C14.223 8.99926 13.3499 8.12621 13.3499 7.04926L13.3499 4.32811C13.2491 4.30954 13.1461 4.3 13.042 4.3ZM14.6499 5.23254L16.9447 7.69926L15.2999 7.69926C14.9409 7.69926 14.6499 7.40824 14.6499 7.04926L14.6499 5.23254ZM5 12.3L19 12.3C19.9389 12.3 20.7 13.0611 20.7 14L20.7 18C20.7 18.9389 19.9389 19.7 19 19.7L5 19.7C4.06112 19.7 3.3 18.9389 3.3 18L3.3 14C3.3 13.0611 4.06112 12.3 5 12.3ZM6.95105 13.8502C6.74256 13.5579 6.33665 13.49 6.0444 13.6985C5.75216 13.907 5.68427 14.3129 5.89275 14.6052L6.88785 16L5.89273 17.3949C5.68424 17.6872 5.75214 18.0931 6.04438 18.3016C6.33662 18.51 6.74254 18.4421 6.95102 18.1499L7.6863 17.1192L8.42158 18.1499C8.63007 18.4421 9.03599 18.51 9.32823 18.3016C9.62047 18.0931 9.68836 17.6872 9.47988 17.3949L8.48476 16L9.47985 14.6052C9.68834 14.3129 9.62044 13.907 9.3282 13.6985C9.03596 13.49 8.63004 13.5579 8.42156 13.8502L7.6863 14.8808L6.95105 13.8502ZM12.4122 14.2329C12.4122 13.8739 12.1212 13.5829 11.7622 13.5829C11.4032 13.5829 11.1122 13.8739 11.1122 14.2329L11.1122 17.7724C11.1122 18.1314 11.4032 18.4224 11.7622 18.4224L13.4811 18.4224C13.84 18.4224 14.1311 18.1314 14.1311 17.7724C14.1311 17.4134 13.84 17.1224 13.4811 17.1224L12.4122 17.1224L12.4122 14.2329ZM17.4474 13.5829C17.8064 13.5829 18.0974 13.8739 18.0974 14.2329C18.0974 14.5919 17.8064 14.8829 17.4474 14.8829L16.5876 14.8829C16.4721 14.8829 16.3786 14.9765 16.3786 15.0919C16.3786 15.1793 16.4329 15.2574 16.5147 15.2878L17.2678 15.5678C17.845 15.7823 18.2279 16.3332 18.2279 16.9489C18.2279 17.7627 17.5682 18.4224 16.7544 18.4224L15.7286 18.4224C15.3696 18.4224 15.0786 18.1314 15.0786 17.7724C15.0786 17.4134 15.3696 17.1224 15.7286 17.1224L16.7544 17.1224C16.8502 17.1224 16.9279 17.0447 16.9279 16.9489C16.9279 16.8764 16.8828 16.8116 16.8149 16.7863L16.0618 16.5064C15.4707 16.2867 15.0786 15.7225 15.0786 15.0919C15.0786 14.2585 15.7542 13.5829 16.5876 13.5829L17.4474 13.5829Z"/></svg>

<svg xmlns="http://www.w3.org/2000/svg" fill="none" viewBox="0 0 24 24" focusable="false"><path fill="#74767B" fill-rule="evenodd" d="M5 11V6c0-1.66 1.34-3 3-3h5.04c.83 0 1.63.34 2.19.95l2.96 3.18c.52.56.81 1.29.81 2.04V11c1.65 0 3 1.34 3 3v4c0 1.65-1.35 3-3 3H5c-1.66 0-3-1.35-3-3v-4c0-1.66 1.34-3 3-3m8.04-6.71H8c-.94 0-1.7.77-1.7 1.71v5h11.4V9.17c0-.06-.01-.12-.01-.18h-2.4c-1.07 0-1.95-.87-1.95-1.95V4.32q-.15-.03-.3-.03m1.6.94 2.3 2.46h-1.65c-.35 0-.65-.29-.65-.65zM5 12.3h14c.93 0 1.7.76 1.7 1.7v4c0 .93-.77 1.7-1.7 1.7H5c-.94 0-1.7-.77-1.7-1.7v-4c0-.94.76-1.7 1.7-1.7m1.95 1.55a.657.657 0 0 0-.91-.16c-.29.21-.36.62-.15.91l.99 1.4-.99 1.39a.648.648 0 1 0 1.06.75l.73-1.03.74 1.03c.21.3.61.37.9.16.3-.21.36-.62.15-.91L8.48 16l.99-1.4a.646.646 0 1 0-1.05-.75l-.74 1.03zm4.81-.27c.36 0 .65.29.65.65v2.89h1.07c.36 0 .65.29.65.65s-.29.65-.65.65h-1.72c-.36 0-.65-.29-.65-.65v-3.54c0-.36.29-.65.65-.65m5.68 0c.36 0 .65.29.65.65s-.29.65-.65.65h-.86c-.11 0-.21.09-.21.21 0 .08.06.16.14.19l.75.28c.58.22.96.77.96 1.38 0 .82-.66 1.48-1.47 1.48h-1.03c-.36 0-.65-.29-.65-.65s.29-.65.65-.65h1.03c.1 0 .17-.08.17-.18 0-.07-.04-.13-.11-.16l-.75-.28c-.59-.22-.99-.78-.99-1.41 0-.84.68-1.51 1.51-1.51z"/></svg>
